icons/neuro_surgery.svg

<svg width="48" height="48" viewBox="0 0 48 48" fill="none" xmlns="http://www.w3.org/2000/svg">
<path fill-rule="evenodd" clip-rule="evenodd" d="M7.72519 25.9757L7.89624 25.6211C8.90778 23.5247 8.88046 21.7078 8.8568 20.1344L8.8554 20.0409C8.84864 19.5833 8.84247 19.1515 8.85294 18.7014C8.89614 16.9773 9.45335 15.2924 10.4706 13.843C11.637 12.4387 13.1659 11.3281 14.9218 10.6243L14.954 10.6113L14.9858 10.5973C16.9634 9.72361 19.0905 9.1988 21.2625 9.0465C21.0905 9.83768 21 10.6587 21 11.5C21 17.8513 26.1487 23 32.5 23C33.2681 23 34.0193 22.9246 34.7463 22.7805C34.1106 25.3374 32.3231 27.5063 29.8748 29.3362L29.0722 29.9361V36.2551C28.7797 36.5821 28.2257 37.0014 27.3795 37.375C26.3023 37.8505 25.2214 38.0417 24.6023 37.9927L24.5235 37.9864H24.4444C22.1931 37.9864 21.4233 37.2284 21.2189 36.9882L21.2129 36.9811V33.4312L18.5927 34.2906L18.5916 34.2909L18.5902 34.2914L18.5803 34.2945C18.5678 34.2985 18.546 34.3053 18.5155 34.3146C18.4545 34.3331 18.3592 34.3612 18.2341 34.3957C17.9832 34.4649 17.6162 34.5587 17.1695 34.6515C17.1117 34.6635 17.0527 34.6755 16.9924 34.6874C15.4136 34.9989 13.3534 35.1826 11.7905 34.6727C11.0585 34.4339 10.518 34.0698 10.1464 33.5593C9.77529 33.0497 9.44207 32.215 9.44207 30.8026V29.0847L7.75166 28.8267L7.74338 28.8253C7.73272 28.8235 7.7122 28.8199 7.68318 28.8144C7.62481 28.8032 7.53402 28.7846 7.42132 28.7575C7.19001 28.7018 6.89576 28.617 6.61021 28.5002C6.33525 28.3877 6.13941 28.2742 6.02151 28.181C6.03222 28.1432 6.04841 28.0944 6.07292 28.0339C6.16653 27.8026 6.33141 27.5244 6.55093 27.2282C6.7646 26.9399 6.99289 26.684 7.17148 26.4977C7.25926 26.4062 7.33131 26.3353 7.37851 26.29C7.40202 26.2674 7.4191 26.2515 7.42856 26.2427L7.43485 26.2368L7.43615 26.2357L7.72519 25.9757ZM22.6134 7.00001C22.9205 7.45513 23.2184 7.89554 23.5094 8.32233L23.5403 8.33325L23.5323 8.35591C27.3851 14.004 30.0389 17.2655 37 20.6948C37 25.0646 34.4203 28.4358 31.0722 30.9382V36.8491C30.1221 38.7816 26.5383 40.1522 24.4444 39.9864C21.6652 39.9864 20.3164 39.0138 19.6957 38.2843C19.6613 38.2439 19.6292 38.2043 19.5992 38.1656C19.5609 38.1163 19.5261 38.0685 19.4944 38.0227C19.2818 37.715 19.2129 37.4965 19.2129 37.4965V36.192C19.2129 36.192 18.5663 36.4041 17.5762 36.6097C17.5121 36.6231 17.4465 36.6363 17.3796 36.6496C17.3249 36.6603 17.2694 36.6711 17.2129 36.6817C13.8538 37.315 7.44207 37.6297 7.44207 30.8026C7.44207 30.8026 4.34242 30.3295 4.02852 28.6115C3.71463 26.8934 6.09496 24.752 6.09496 24.752C6.90013 23.0833 6.87929 21.6725 6.85561 20.0705C6.84891 19.6168 6.84198 19.1475 6.85353 18.653C6.90711 16.5008 7.61091 14.4088 8.88073 12.6273C10.2713 10.9315 12.0948 9.60279 14.1776 8.76788C16.8205 7.60025 19.6997 6.99686 22.6134 7.00001ZM23 11.5C23 11.3701 23.0026 11.2409 23.0078 11.1124C24.3721 13.0463 25.6925 14.7532 27.2122 16.3007C28.9079 18.0273 30.8204 19.5267 33.279 20.9686C33.0222 20.9894 32.7624 21 32.5 21C27.2533 21 23 16.7467 23 11.5ZM38.1309 38V29C38.1309 28.0303 38.5909 27.1681 39.3047 26.6197C38.5996 26.1776 38.1309 25.3936 38.1309 24.5V10.5C38.1309 9.11929 39.2501 8 40.6309 8C42.0116 8 43.1309 9.11929 43.1309 10.5V24.5C43.1309 25.1968 42.8458 25.8271 42.3859 26.2804C43.4263 26.7651 44.1718 27.8348 43.9656 29.1486C43.5688 31.6775 42.5263 33.5777 41.5813 34.8459C41.1089 35.4799 40.6591 35.9585 40.3222 36.2827C40.1536 36.4449 40.0127 36.569 39.9106 36.6551C39.8595 36.6982 39.8181 36.7317 39.7877 36.7559C39.7725 36.7679 39.7601 36.7777 39.7505 36.785L39.7384 36.7943L39.7341 36.7976L39.7323 36.7989C39.732 36.7992 39.7309 36.8 39.1309 36L39.7309 36.8L38.1309 38ZM40.1309 21.5858V19.4142L41.1309 18.4142V20.5858L40.1309 21.5858ZM40.1309 10.5V16.5858L41.1309 15.5858V10.5C41.1309 10.2239 40.907 10 40.6309 10C40.3547 10 40.1309 10.2239 40.1309 10.5ZM41.1309 23.4142V24.5C41.1309 24.7761 40.907 25 40.6309 25C40.3547 25 40.1309 24.7761 40.1309 24.5V24.4142L41.1309 23.4142ZM40.1309 33.4398C40.8832 32.3766 41.6752 30.8438 41.9898 28.8386C42.0491 28.4606 41.7343 28 41.1309 28C40.5786 28 40.1309 28.4477 40.1309 29V33.4398Z" fill="black"/>
</svg>

<svg
  xmlns="http://www.w3.org/2000/svg"
  width="24"
  height="24"
  viewBox="0 0 24 24"
  fill="none"
  stroke="currentColor"
  stroke-width="2"
  stroke-linecap="round"
  stroke-linejoin="round"
>
  <path
    fill-rule="evenodd"
    d="m7.725 25.976.171-.355c1.012-2.096.984-3.913.96-5.487v-.093c-.007-.458-.014-.89-.003-1.34a8.84 8.84 0 0 1 1.618-4.858 11.2 11.2 0 0 1 4.45-3.219l.033-.013.032-.014a18.8 18.8 0 0 1 6.276-1.55A11.5 11.5 0 0 0 21 11.5C21 17.851 26.149 23 32.5 23c.768 0 1.52-.075 2.246-.22-.635 2.557-2.423 4.726-4.871 6.556l-.803.6v6.32c-.292.326-.846.745-1.692 1.119-1.078.475-2.159.667-2.778.618l-.079-.007h-.079c-2.25 0-3.02-.758-3.225-.998l-.006-.007v-3.55l-2.62.86h-.003l-.01.004-.064.02q-.093.028-.282.08a17 17 0 0 1-1.242.292c-1.578.312-3.639.496-5.202-.014-.731-.24-1.272-.603-1.644-1.114-.37-.51-.704-1.344-.704-2.756v-1.718l-1.69-.258-.009-.002-.06-.01A6 6 0 0 1 6.61 28.5a2.5 2.5 0 0 1-.588-.319 1 1 0 0 1 .05-.147 4 4 0 0 1 .479-.806 8 8 0 0 1 .878-.985l.006-.006.001-.001zM22.613 7q.46.683.896 1.322l.031.011-.008.023c3.853 5.648 6.507 8.91 13.468 12.339 0 4.37-2.58 7.74-5.928 10.243v5.911c-.95 1.933-4.534 3.303-6.628 3.137-2.779 0-4.128-.972-4.748-1.702a3 3 0 0 1-.202-.261c-.212-.308-.281-.527-.281-.527v-1.304s-.647.212-1.637.418l-.363.072c-3.36.633-9.77.948-9.77-5.88 0 0-3.1-.473-3.414-2.19-.314-1.719 2.066-3.86 2.066-3.86.805-1.669.784-3.08.76-4.681a37 37 0 0 1-.001-1.418 10.84 10.84 0 0 1 2.027-6.026 13.2 13.2 0 0 1 5.297-3.86A20.8 20.8 0 0 1 22.613 7M23 11.5q0-.196.008-.388c1.364 1.934 2.685 3.641 4.204 5.189 1.696 1.726 3.608 3.226 6.067 4.668q-.386.03-.779.031a9.5 9.5 0 0 1-9.5-9.5M38.13 38v-9c0-.97.46-1.832 1.175-2.38a2.5 2.5 0 0 1-1.174-2.12v-14a2.5 2.5 0 1 1 5 0v14c0 .697-.285 1.327-.745 1.78 1.04.485 1.786 1.555 1.58 2.869a12.8 12.8 0 0 1-2.385 5.697 12 12 0 0 1-1.259 1.437 9 9 0 0 1-.534.473l-.037.029-.013.01-.004.003h-.002c0 .001-.001.002-.601-.798l.6.8zm2-16.414v-2.172l1-1v2.172zm0-11.086v6.086l1-1V10.5a.5.5 0 0 0-1 0m1 12.914V24.5a.5.5 0 0 1-1 0v-.086zm-1 10.026a10.84 10.84 0 0 0 1.86-4.601c.06-.378-.256-.839-.86-.839a1 1 0 0 0-1 1z"
    clip-rule="evenodd"
  />
</svg>
